fs/credit_card_clock_32_filled.svg

<svg viewBox="0 0 32 32" fill="none" xmlns="http://www.w3.org/2000/svg" height="1em" width="1em">
  <path d="M6.5 5C4.01472 5 2 7.01472 2 9.5V11H30V9.5C30 7.01472 27.9853 5 25.5 5H6.5ZM2 22.5V13H30V17.3427C28.35 15.3037 25.8273 14 23 14C18.0294 14 14 18.0294 14 23C14 24.4368 14.3367 25.795 14.9355 27H6.5C4.01472 27 2 24.9853 2 22.5ZM23 30.5C18.8579 30.5 15.5 27.1421 15.5 23C15.5 18.8579 18.8579 15.5 23 15.5C27.1421 15.5 30.5 18.8579 30.5 23C30.5 27.1421 27.1421 30.5 23 30.5ZM22.75 18C22.3358 18 22 18.3358 22 18.75V23.25C22 23.6642 22.3358 24 22.75 24H26.25C26.6642 24 27 23.6642 27 23.25C27 22.8358 26.6642 22.5 26.25 22.5H23.5V18.75C23.5 18.3358 23.1642 18 22.75 18Z" fill="#212121"/>
</svg>

<svg viewBox="0 0 32 32" fill="none" xmlns="http://www.w3.org/2000/svg" height="1em" width="1em">
  <path d="M6.5 5A4.5 4.5 0 0 0 2 9.5V11h28V9.5A4.5 4.5 0 0 0 25.5 5h-19ZM2 22.5V13h28v4.343A9 9 0 0 0 14.935 27H6.5A4.5 4.5 0 0 1 2 22.5Zm21 8a7.5 7.5 0 1 1 0-15 7.5 7.5 0 0 1 0 15ZM22.75 18a.75.75 0 0 0-.75.75v4.5c0 .414.336.75.75.75h3.5a.75.75 0 0 0 0-1.5H23.5v-3.75a.75.75 0 0 0-.75-.75Z" fill="#212121"/>
</svg>
